svgs/thin/album-collection-circle-user.svg

<svg xmlns="http://www.w3.org/2000/svg" viewBox="0 0 640 512"><!--! Font Awesome Pro 6.5.1 by @fontawesome - https://fontawesome.com License - https://fontawesome.com/license (Commercial License) Copyright 2023 Fonticons, Inc. --><path d="M64 0H448c17.7 0 32 14.3 32 32v8c0 4.4-3.6 8-8 8s-8-3.6-8-8V32c0-8.8-7.2-16-16-16H64c-8.8 0-16 7.2-16 16v8c0 4.4-3.6 8-8 8s-8-3.6-8-8V32C32 14.3 46.3 0 64 0zM16 112c0-17.7 14.3-32 32-32H464c17.7 0 32 14.3 32 32v8c0 4.4-3.6 8-8 8s-8-3.6-8-8v-8c0-8.8-7.2-16-16-16H48c-8.8 0-16 7.2-16 16v8c0 4.4-3.6 8-8 8s-8-3.6-8-8v-8zM4.2 212.6C1.5 184.4 23.7 160 52 160H460c21.2 0 38.9 13.6 45.4 32.2c-3.1-.2-6.2-.2-9.4-.2c-2.7 0-5.5 .1-8.2 .2C482.4 182.6 472 176 460 176H52c-18.9 0-33.6 16.2-31.9 35L44.5 467c1.6 16.4 15.4 29 31.9 29H375.2c6.1 5.8 12.7 11.1 19.6 16H76.4c-24.7 0-45.4-18.8-47.8-43.4L4.2 212.6zM256 208c45.1 0 86.3 12.7 117.4 33.7c-3.9 3.8-7.6 7.7-11.1 11.8C334.3 235.3 297.2 224 256 224c-45.5 0-86 13.8-114.9 35.5S96 309.7 96 340s16.3 58.9 45.1 80.5S210.5 456 256 456c29.2 0 56.3-5.7 79.6-15.5c2.2 4.9 4.6 9.7 7.3 14.3C317.2 465.8 287.6 472 256 472c-97.2 0-176-59.1-176-132s78.8-132 176-132zm25.8 160.6c-7.3 4.9-16.5 7.4-25.8 7.4s-18.5-2.5-25.8-7.4C223 363.8 216 355.4 216 344s7-19.8 14.2-24.6c7.3-4.9 16.5-7.4 25.8-7.4s18.5 2.5 25.8 7.4c7.2 4.8 14.2 13.2 14.2 24.6s-7 19.8-14.2 24.6zM256 360c13.3 0 24-7.2 24-16s-10.7-16-24-16s-24 7.2-24 16s10.7 16 24 16zM573.9 469.6l-3.3-6.6c-9.5-19-28.9-31-50.1-31H471.6c-21.2 0-40.6 12-50.1 31l-3.3 6.6C439.7 486.2 466.7 496 496 496s56.3-9.8 77.9-26.4zm12.4-10.9C609.6 435.5 624 403.5 624 368c0-70.7-57.3-128-128-128s-128 57.3-128 128c0 35.5 14.4 67.5 37.7 90.7l1.5-2.9c12.2-24.4 37.1-39.8 64.4-39.8h48.9c27.3 0 52.2 15.4 64.4 39.8l1.5 2.9zM352 368a144 144 0 1 1 288 0 144 144 0 1 1 -288 0zm144 0a32 32 0 1 0 0-64 32 32 0 1 0 0 64zm0-80a48 48 0 1 1 0 96 48 48 0 1 1 0-96z"/></svg>

<svg xmlns="http://www.w3.org/2000/svg" viewBox="0 0 640 512"><!--! Font Awesome Pro 6.1.1 by @fontawesome - https://fontawesome.com License - https://fontawesome.com/license (Commercial License) Copyright 2022 Fonticons, Inc. --><path d="M448 0C465.7 0 480 14.33 480 32V40C480 44.42 476.4 48 472 48C467.6 48 464 44.42 464 40V32C464 23.16 456.8 16 448 16H64C55.16 16 48 23.16 48 32V40C48 44.42 44.42 48 40 48C35.58 48 32 44.42 32 40V32C32 14.33 46.33 0 64 0H448zM16 112C16 94.33 30.33 80 48 80H464C481.7 80 496 94.33 496 112V120C496 124.4 492.4 128 488 128C483.6 128 480 124.4 480 120V112C480 103.2 472.8 96 464 96H48C39.16 96 32 103.2 32 112V120C32 124.4 28.42 128 24 128C19.58 128 16 124.4 16 120V112zM4.207 212.6C1.523 184.4 23.68 160 51.99 160H460C481.2 160 498.9 173.6 505.4 192.2C502.3 192.1 499.1 192 496 192C493.3 192 490.5 192.1 487.8 192.2C482.4 182.6 472 176 460 176H51.99C33.12 176 18.35 192.2 20.13 211L44.52 467C46.08 483.5 59.87 496 76.37 496H375.2C381.3 501.8 387.9 507.1 394.8 512H76.37C51.62 512 30.93 493.2 28.59 468.6L4.207 212.6zM256 208C301.1 208 342.3 220.7 373.4 241.7C369.6 245.5 365.8 249.4 362.3 253.5C334.3 235.3 297.2 224 256 224C210.5 224 169.1 237.8 141.1 259.5C112.3 281.1 96 309.7 96 340C96 370.3 112.3 398.9 141.1 420.5C169.1 442.2 210.5 456 256 456C285.2 456 312.3 450.3 335.6 440.5C337.8 445.4 340.2 450.2 342.9 454.8C317.2 465.8 287.6 472 256 472C158.8 472 80 412.9 80 340C80 267.1 158.8 207.1 256 207.1V208zM281.8 368.6C274.5 373.5 265.3 376 256 376C246.7 376 237.5 373.5 230.2 368.6C222.1 363.8 216 355.4 216 344C216 332.6 222.1 324.2 230.2 319.4C237.5 314.5 246.7 312 256 312C265.3 312 274.5 314.5 281.8 319.4C289 324.2 296 332.6 296 344C296 355.4 289 363.8 281.8 368.6zM256 360C269.3 360 280 352.8 280 344C280 335.2 269.3 328 256 328C242.7 328 232 335.2 232 344C232 352.8 242.7 360 256 360zM448 336C448 309.5 469.5 288 496 288C522.5 288 544 309.5 544 336C544 362.5 522.5 384 496 384C469.5 384 448 362.5 448 336zM496 368C513.7 368 528 353.7 528 336C528 318.3 513.7 304 496 304C478.3 304 464 318.3 464 336C464 353.7 478.3 368 496 368zM640 368C640 447.5 575.5 512 496 512C416.5 512 352 447.5 352 368C352 288.5 416.5 224 496 224C575.5 224 640 288.5 640 368zM570.5 462.1C561 443.1 541.7 432 520.4 432H471.6C450.3 432 430.1 443.1 421.5 462.1L418.1 469.6C439.7 486.2 466.7 496 496 496C525.3 496 552.3 486.2 573.9 469.6L570.5 462.1zM624 368C624 297.3 566.7 240 496 240C425.3 240 368 297.3 368 368C368 403.5 382.4 435.5 405.7 458.7L407.2 455.8C419.4 431.4 444.3 416 471.6 416H520.4C547.7 416 572.6 431.4 584.8 455.8L586.3 458.7C609.6 435.5 624 403.5 624 368z"/></svg>
